docs/svg/tango_config.svg

<?xml version="1.0" encoding="UTF-8" standalone="no"?>
<svg xmlns="http://www.w3.org/2000/svg" xmlns:xlink="http://www.w3.org/1999/xlink" viewBox="0 0 48 48">
  <defs id="defs3">
    <linearGradient id="linearGradient3264">
      <stop id="stop3266" offset="0" style="stop-color:#c9c9c9;stop-opacity:1;" />
      <stop style="stop-color:#f8f8f8;stop-opacity:1;" offset="0.25" id="stop3276" />
      <stop style="stop-color:#e2e2e2;stop-opacity:1;" offset="0.5" id="stop3272" />
      <stop id="stop3274" offset="0.75" style="stop-color:#b0b0b0;stop-opacity:1;" />
      <stop id="stop3268" offset="1" style="stop-color:#c9c9c9;stop-opacity:1;" />
    </linearGradient>
    <linearGradient id="linearGradient3256">
      <stop id="stop3258" offset="0" style="stop-color:#000000;stop-opacity:1;" />
      <stop id="stop3260" offset="1" style="stop-color:#000000;stop-opacity:0;" />
    </linearGradient>
    <radialGradient gradientUnits="userSpaceOnUse" gradientTransform="matrix(1.000000,0.000000,0.000000,0.315315,0.000000,26.81305)" r="19.622213" fy="39.161163" fx="25.455845" cy="39.161163" cx="25.455845" id="radialGradient3262" xlink:href="#linearGradient3256" />
    <linearGradient gradientTransform="matrix(1.241935,0.000000,0.000000,1.241935,-5.027508,-7.208988)" y2="39.684914" x2="34.534348" y1="12.284524" x1="14.462892" gradientUnits="userSpaceOnUse" id="linearGradient3281" xlink:href="#linearGradient3264" />
  </defs>
  <g id="layer1">
    <path transform="translate(-0.883885,2.474874)" d="M 45.078058 39.161163 A 19.622213 6.1871843 0 1 1  5.8336315,39.161163 A 19.622213 6.1871843 0 1 1  45.078058 39.161163 z" id="path3254" style="opacity:0.40909089;color:#000000;fill:url(#radialGradient3262);fill-opacity:1;fill-rule:nonzero;stroke:none;stroke-width:1;stroke-linecap:butt;stroke-linejoin:miter;marker:none;marker-start:none;marker-mid:none;marker-end:none;stroke-miterlimit:4;stroke-dasharray:none;stroke-dashoffset:0;stroke-opacity:1;visibility:visible;display:inline;overflow:visible" />
    <path id="path3243" d="M 23.25 0.46875 C 22.784561 0.50059628 22.332166 0.57268469 21.875 0.625 L 21.84375 0.625 L 20.75 6.59375 C 18.967275 6.9997399 17.290091 7.6887415 15.78125 8.625 L 10.875 5.09375 C 9.5487118 6.1234406 8.3418016 7.3243453 7.28125 8.625 L 10.6875 13.59375 C 9.6532671 15.174265 8.8755317 16.978974 8.4375 18.875 C 8.437425 18.883963 8.4374391 18.904688 8.4375 18.90625 L 2.5 19.84375 C 2.3914467 20.730383 2.34375 21.646689 2.34375 22.5625 C 2.3437501 23.3118 2.3644394 24.051089 2.4375 24.78125 L 8.375 25.84375 C 8.797279 27.905642 9.5994587 29.831262 10.71875 31.53125 L 7.1875 36.375 C 8.1988261 37.630518 9.3663917 38.773616 10.625 39.78125 L 15.625 36.34375 C 17.372433 37.458467 19.323083 38.240124 21.4375 38.625 L 22.375 44.53125 C 23.041183 44.591889 23.724349 44.59375 24.40625 44.59375 C 25.368935 44.593749 26.288487 44.557267 27.21875 44.4375 L 28.34375 38.40625 C 30.351311 37.906649 32.237219 37.03996 33.875 35.875 L 38.6875 39.375 C 39.935528 38.313203 41.076777 37.092744 42.0625 35.78125 L 38.5625 30.71875 C 39.510353 29.08176 40.167129 27.275609 40.5 25.34375 L 46.40625 24.40625 C 46.458044 23.789904 46.46875 23.192163 46.46875 22.5625 C 46.46875 21.468286 46.341568 20.395416 46.1875 19.34375 L 40.1875 18.25 C 39.717306 16.513776 38.945824 14.893898 37.96875 13.4375 L 41.5 8.59375 C 40.405427 7.2551429 39.156822 6.0185688 37.78125 4.96875 L 32.6875 8.46875 C 31.223504 7.6029126 29.648037 6.9385679 27.9375 6.5625 L 27 0.625 C 26.146701 0.52462461 25.286379 0.46875 24.40625 0.46875 C 24.168378 0.46875001 23.923566 0.4612654 23.6875 0.46875 C 23.572417 0.47239881 23.458534 0.4620551 23.34375 0.46875 C 23.312662 0.4705632 23.281029 0.46662691 23.25 0.46875 z M 24.0625 15.65625 C 24.176666 15.650457 24.290652 15.65625 24.40625 15.65625 C 28.105377 15.65625 31.125 18.675874 31.125 22.375 C 31.125001 26.074126 28.105376 29.0625 24.40625 29.0625 C 20.707125 29.062501 17.71875 26.074126 17.71875 22.375 C 17.718751 18.791473 20.52335 15.835842 24.0625 15.65625 z " style="opacity:1;color:#000000;fill:url(#linearGradient3281);fill-opacity:1;fill-rule:nonzero;stroke:#808080;stroke-width:1;stroke-linecap:butt;stroke-linejoin:miter;marker:none;marker-start:none;marker-mid:none;marker-end:none;stroke-miterlimit:4;stroke-dasharray:none;stroke-dashoffset:0;stroke-opacity:1;visibility:visible;display:inline;overflow:visible" />
    <path transform="matrix(0.606518,0.000000,0.000000,0.606518,10.15021,7.936835)" d="M 36.239223 23.781593 A 12.727922 12.727922 0 1 1  10.783379,23.781593 A 12.727922 12.727922 0 1 1  36.239223 23.781593 z" id="path3283" style="opacity:0.64772728;color:#000000;fill:none;fill-opacity:1;fill-rule:nonzero;stroke:#ffffff;stroke-width:1.64875567;stroke-linecap:butt;stroke-linejoin:miter;marker:none;marker-start:none;marker-mid:none;marker-end:none;stroke-miterlimit:4;stroke-dasharray:none;stroke-dashoffset:0;stroke-opacity:1;visibility:visible;display:inline;overflow:visible" />
    <path style="opacity:0.34659089;color:#000000;fill:none;fill-opacity:1;fill-rule:nonzero;stroke:#ffffff;stroke-width:0.9999997;stroke-linecap:butt;stroke-linejoin:miter;marker:none;marker-start:none;marker-mid:none;marker-end:none;stroke-miterlimit:4;stroke-dasharray:none;stroke-dashoffset:0;stroke-opacity:1;visibility:visible;display:inline;overflow:visible" d="M 22.557788,1.6501132 L 21.679599,7.4291233 C 20.008601,7.8096689 16.934874,8.9735344 15.520595,9.8511162 L 10.848562,6.3639293 C 9.6053938,7.3290873 9.5201391,7.3945394 8.5260544,8.6136804 L 11.904107,13.623634 C 10.934692,15.105095 9.7703031,17.745129 9.3522336,19.631722 C 9.3522336,19.631722 3.4328248,20.629563 3.4328248,20.629563 C 3.3310749,21.460629 3.3799751,23.239361 3.4484569,23.923761 L 9.1027005,24.942349 C 9.4985145,26.875018 10.979731,29.985937 12.028874,31.579383 L 8.4532981,36.303427 C 9.4012426,37.480259 9.5909623,37.587948 10.770691,38.532432 L 15.551859,35.029612 C 17.189777,36.074467 20.440892,37.345498 22.422794,37.706253 L 23.207481,43.412507 C 23.831913,43.469346 25.556962,43.628788 26.428924,43.516527 L 27.307112,37.576373 C 29.188855,37.108084 32.440272,35.773413 33.97541,34.681463 L 38.751465,38.132271 C 39.921276,37.13702 39.931757,36.987055 40.855703,35.757755 L 37.316505,30.727054 C 38.204954,29.192656 39.353733,26.191831 39.665742,24.381045 L 45.460384,23.419582 C 45.508931,22.841863 45.511294,21.230793 45.366882,20.245037 L 39.463105,19.226449 C 39.022378,17.599038 37.509894,14.666467 36.594056,13.301345 L 40.346408,8.5773019 C 39.320436,7.3225876 38.938964,7.150431 37.649602,6.1664065 L 32.707289,9.7056032 C 31.335043,8.8940304 28.598675,7.6568558 26.995341,7.3043568 L 26.122266,1.6501132 C 25.322445,1.5560285 23.014871,1.5978075 22.557788,1.6501132 z " id="path3285" />
  </g>
</svg>

<svg xmlns="http://www.w3.org/2000/svg" viewBox="0 0 48 48"><defs><linearGradient id="b"><stop offset="0" style="stop-color:#c9c9c9;stop-opacity:1"/><stop style="stop-color:#f8f8f8;stop-opacity:1" offset=".25"/><stop style="stop-color:#e2e2e2;stop-opacity:1" offset=".5"/><stop offset=".75" style="stop-color:#b0b0b0;stop-opacity:1"/><stop offset="1" style="stop-color:#c9c9c9;stop-opacity:1"/></linearGradient><linearGradient id="a"><stop offset="0" style="stop-color:#000;stop-opacity:1"/><stop offset="1" style="stop-color:#000;stop-opacity:0"/></linearGradient><linearGradient gradientTransform="matrix(1.24194 0 0 1.24194 -5.028 -7.209)" y2="39.685" x2="34.534" y1="12.285" x1="14.463" gradientUnits="userSpaceOnUse" id="d" href="#b"/><radialGradient gradientUnits="userSpaceOnUse" gradientTransform="matrix(1 0 0 .31532 0 26.813)" r="19.622" fy="39.161" fx="25.456" cy="39.161" cx="25.456" id="c" href="#a"/></defs><path transform="translate(-.884 2.475)" d="M45.078 39.161a19.622 6.187 0 1 1-39.244 0 19.622 6.187 0 1 1 39.244 0z" style="opacity:.40909089;color:#000;fill:url(#c);fill-opacity:1;fill-rule:nonzero;stroke:none;stroke-width:1;stroke-linecap:butt;stroke-linejoin:miter;marker:none;marker-start:none;marker-mid:none;marker-end:none;stroke-miterlimit:4;stroke-dasharray:none;stroke-dashoffset:0;stroke-opacity:1;visibility:visible;display:inline;overflow:visible"/><path d="M23.25.469c-.465.032-.918.104-1.375.156h-.031L20.75 6.594a16.267 16.267 0 0 0-4.969 2.031l-4.906-3.531a22.367 22.367 0 0 0-3.594 3.531l3.407 4.969a16.468 16.468 0 0 0-2.25 5.281v.031l-5.938.938a22.483 22.483 0 0 0-.156 2.718c0 .75.02 1.49.094 2.22l5.937 1.062a16.269 16.269 0 0 0 2.344 5.687l-3.531 4.844a22.36 22.36 0 0 0 3.437 3.406l5-3.437a16.128 16.128 0 0 0 5.813 2.281l.937 5.906c.666.06 1.35.063 2.031.063.963 0 1.882-.037 2.813-.157l1.125-6.03a16.394 16.394 0 0 0 5.531-2.532l4.813 3.5a22.44 22.44 0 0 0 3.374-3.594l-3.5-5.062a16.163 16.163 0 0 0 1.938-5.375l5.906-.938c.052-.616.063-1.214.063-1.843 0-1.095-.127-2.168-.282-3.22l-6-1.093a16.318 16.318 0 0 0-2.218-4.813L41.5 8.595a22.386 22.386 0 0 0-3.719-3.625l-5.093 3.5c-1.464-.866-3.04-1.53-4.75-1.906L27 .625c-.853-.1-1.714-.156-2.594-.156-.238 0-.482-.008-.718 0-.116.003-.23-.007-.344 0-.031.002-.063-.002-.094 0zm.813 15.187c.114-.006.228 0 .343 0 3.7 0 6.719 3.02 6.719 6.719 0 3.7-3.02 6.688-6.719 6.688a6.68 6.68 0 0 1-6.687-6.688c0-3.584 2.804-6.54 6.343-6.719z" style="opacity:1;color:#000;fill:url(#d);fill-opacity:1;fill-rule:nonzero;stroke:gray;stroke-width:1;stroke-linecap:butt;stroke-linejoin:miter;marker:none;marker-start:none;marker-mid:none;marker-end:none;stroke-miterlimit:4;stroke-dasharray:none;stroke-dashoffset:0;stroke-opacity:1;visibility:visible;display:inline;overflow:visible"/><path transform="matrix(.60652 0 0 .60652 10.15 7.937)" d="M36.24 23.782a12.728 12.728 0 1 1-25.457 0 12.728 12.728 0 1 1 25.456 0z" style="opacity:.64772728;color:#000;fill:none;fill-opacity:1;fill-rule:nonzero;stroke:#fff;stroke-width:1.64875567;stroke-linecap:butt;stroke-linejoin:miter;marker:none;marker-start:none;marker-mid:none;marker-end:none;stroke-miterlimit:4;stroke-dasharray:none;stroke-dashoffset:0;stroke-opacity:1;visibility:visible;display:inline;overflow:visible"/><path style="opacity:.34659089;color:#000;fill:none;fill-opacity:1;fill-rule:nonzero;stroke:#fff;stroke-width:.9999997;stroke-linecap:butt;stroke-linejoin:miter;marker:none;marker-start:none;marker-mid:none;marker-end:none;stroke-miterlimit:4;stroke-dasharray:none;stroke-dashoffset:0;stroke-opacity:1;visibility:visible;display:inline;overflow:visible" d="m22.558 1.65-.878 5.78c-1.671.38-4.745 1.544-6.16 2.421L10.85 6.364c-1.244.965-1.329 1.03-2.323 2.25l3.378 5.01c-.97 1.481-2.134 4.121-2.552 6.008l-5.92.998c-.1.83-.052 2.61.016 3.294l5.655 1.018c.396 1.933 1.877 5.044 2.926 6.637l-3.576 4.724c.948 1.177 1.138 1.285 2.318 2.23l4.78-3.503c1.639 1.044 4.89 2.315 6.872 2.676l.784 5.707c.625.056 2.35.216 3.222.104l.878-5.94c1.882-.469 5.133-1.804 6.668-2.896l4.776 3.451c1.17-.995 1.18-1.145 2.105-2.374l-3.54-5.03c.889-1.535 2.038-4.536 2.35-6.347l5.794-.961c.049-.578.051-2.19-.093-3.175l-5.904-1.019c-.44-1.627-1.953-4.56-2.869-5.925l3.752-4.724C39.32 7.323 38.94 7.15 37.65 6.167l-4.943 3.539c-1.372-.812-4.108-2.05-5.712-2.402l-.873-5.654c-.8-.094-3.107-.052-3.564 0z"/></svg>
